X:1
T:Title
L:1/8
M:6/8
K:F
V:1 treble nm="Grand Piano"
V:1
 z2[Q:1/4=140] C F2 G | A6- | A2 F G2 A | F6- | F2 C F2 G | A6- | A2 A B2 c | G6- | G2 c d2 c | %9
 B6- | B2 B c2 B | A6- | A2 A B2 A | G3 A2 B | c2 B A2 G | A6- | A2 c d2 c | B6- | B2 B c2 B | %19
 A6- | A2 A B2 A | G3 A2 B | c2 B A2 G | F6- |[M:3/8] F3 | z z F |[M:3/4] F2 E E2 D | D4- DG | %28
 G2 F F2 E | E4- EA | A2 G G2 F | F4- FB | B2 A A2 G | G4- GF | F2 E E2 D | D4- DG | G2 F F2 E | %37
 E4- EA | A2 G G2 F | F4- FB | B2 A A2 G | G4- Gc | c4- cB | A3 G3 | F6- | F2 z2 z2 |] %46

